icons/evolvere-blue-folders-flat-vivid-dark-fallback/actions/64/face-smile.svg

<?xml version="1.0" encoding="UTF-8" standalone="no"?>
<!-- Created with Inkscape (http://www.inkscape.org/) -->

<svg
   xmlns:dc="http://purl.org/dc/elements/1.1/"
   xmlns:cc="http://creativecommons.org/ns#"
   xmlns:rdf="http://www.w3.org/1999/02/22-rdf-syntax-ns#"
   xmlns:svg="http://www.w3.org/2000/svg"
   xmlns="http://www.w3.org/2000/svg"
   xmlns:sodipodi="http://sodipodi.sourceforge.net/DTD/sodipodi-0.dtd"
   xmlns:inkscape="http://www.inkscape.org/namespaces/inkscape"
   width="64"
   height="64"
   id="svg13094"
   version="1.1"
   inkscape:version="0.91+devel r"
   sodipodi:docname="face-smile.svg">
  <sodipodi:namedview
     id="base"
     pagecolor="#ffffff"
     bordercolor="#666666"
     borderopacity="1.0"
     inkscape:pageopacity="0"
     inkscape:pageshadow="2"
     inkscape:zoom="11.313709"
     inkscape:cx="35.842322"
     inkscape:cy="32.266251"
     inkscape:document-units="px"
     inkscape:current-layer="svg13094"
     showgrid="true"
     inkscape:snap-bbox="true"
     inkscape:bbox-paths="true"
     inkscape:bbox-nodes="true"
     inkscape:snap-bbox-edge-midpoints="true"
     inkscape:snap-bbox-midpoints="true"
     inkscape:object-paths="true"
     inkscape:snap-intersection-paths="true"
     inkscape:object-nodes="true"
     inkscape:snap-smooth-nodes="true"
     inkscape:snap-midpoints="true"
     inkscape:snap-object-midpoints="true"
     inkscape:snap-center="true"
     showguides="true"
     inkscape:guide-bbox="true"
     inkscape:window-width="1920"
     inkscape:window-height="1023"
     inkscape:window-x="-10"
     inkscape:window-y="35"
     inkscape:window-maximized="1"
     inkscape:snap-global="true"
     fit-margin-top="0"
     fit-margin-left="0"
     fit-margin-right="0"
     fit-margin-bottom="0"
     showborder="true"
     inkscape:showpageshadow="false"
     inkscape:snap-page="true">
    <inkscape:grid
       type="xygrid"
       id="grid3075"
       empspacing="5"
       visible="true"
       enabled="true"
       snapvisiblegridlinesonly="true"
       originx="1.6362304e-08px"
       originy="18px" />
  </sodipodi:namedview>
  <defs
     id="defs13096" />
  <metadata
     id="metadata13099">
    <rdf:RDF>
      <cc:Work
         rdf:about="">
        <dc:format>image/svg+xml</dc:format>
        <dc:type
           rdf:resource="http://purl.org/dc/dcmitype/StillImage" />
        <dc:title></dc:title>
      </cc:Work>
    </rdf:RDF>
  </metadata>
  <path
     inkscape:connector-curvature="0"
     style="color:#000000;display:inline;overflow:visible;visibility:visible;fill:#eeb015;fill-opacity:1;fill-rule:nonzero;stroke:none;stroke-width:2.28571415;marker:none;enable-background:accumulate"
     d="m 0,4 0,30 0,28 2,2 30,0 30,0 2,-2 L 64,34 64,4 32,4 0,4 Z"
     id="path4095" />
  <path
     inkscape:connector-curvature="0"
     style="color:#000000;display:inline;overflow:visible;visibility:visible;fill:#ffe231;fill-opacity:1;fill-rule:nonzero;stroke:none;stroke-width:2.28571415;marker:none;enable-background:accumulate"
     d="M 2,0 0,1 0,4 32,4 64,4 64,1 62,0 32,0 2,0 Z"
     id="path4090" />
  <path
     d="M 64,6 62,4 64,3 Z"
     id="path3028"
     style="fill:#770000;fill-opacity:0.10822898"
     inkscape:connector-curvature="0" />
  <g
     id="g3043"
     inkscape:export-filename="folder.png"
     inkscape:export-xdpi="90"
     inkscape:export-ydpi="90"
     transform="translate(-0.62500009,0.082283)" />
  <g
     id="scalable"
     transform="matrix(1.0385892,0,0,1.0385892,1214.7222,1878.8121)"
     inkscape:label="#g3701"
     style="fill:#ffffff" />
  <path
     d="M 0,6 2,4 0,3 Z"
     id="path3028-6"
     style="fill:#fff77d;fill-opacity:0.67441861"
     inkscape:connector-curvature="0" />
  <path
     style="font-size:medium;font-style:normal;font-variant:normal;font-weight:normal;font-stretch:normal;text-indent:0;text-align:start;text-decoration:none;line-height:normal;letter-spacing:normal;word-spacing:normal;text-transform:none;direction:ltr;block-progression:tb;writing-mode:lr-tb;text-anchor:start;baseline-shift:baseline;color:#000000;fill:#f1f0ee;fill-opacity:1;fill-rule:nonzero;stroke:none;stroke-width:2.28571415;marker:none;visibility:visible;display:inline;overflow:visible;enable-background:accumulate;font-family:Sans;-inkscape-font-specification:Sans;opacity:1;stroke-linecap:butt;stroke-linejoin:miter;stroke-miterlimit:4;stroke-dasharray:none;stroke-dashoffset:0;stroke-opacity:1"
     d="M 32,13 C 20.4329,13 11,22.4326 11,34 11,45.5671 20.4329,55 32,55 43.56707,55 53,45.5671 53,34 53,22.4326 43.56707,13 32,13 z m -9,12 6,0 0,6 -6,0 z m 12,0 6,0 0,6 -6,0 z m -16.5,12.000126 3.1875,0 c 1.2957,4.358292 5.538441,6 10.3125,6 4.774059,0 9.016806,-1.641708 10.3125,-6 l 3.1875,0 c -1.392585,6.015816 -7.096107,10.5 -13.5,10.5 -6.403893,0 -12.107415,-4.484184 -13.5,-10.5 z"
     id="path3781"
     inkscape:connector-curvature="0"
     sodipodi:nodetypes="sssssccccccccccccsccsc" />
  <path
     style="font-size:medium;font-style:normal;font-variant:normal;font-weight:normal;font-stretch:normal;text-indent:0;text-align:start;text-decoration:none;line-height:normal;letter-spacing:normal;word-spacing:normal;text-transform:none;direction:ltr;block-progression:tb;writing-mode:lr-tb;text-anchor:start;baseline-shift:baseline;color:#000000;fill:#770000;fill-opacity:0.10822898;fill-rule:nonzero;stroke:none;stroke-width:2.28571415;marker:none;visibility:visible;display:inline;overflow:visible;enable-background:accumulate;font-family:Sans;-inkscape-font-specification:Sans;stroke-linecap:butt;stroke-linejoin:miter;stroke-miterlimit:4;stroke-opacity:1;stroke-dasharray:none;stroke-dashoffset:0;opacity:1"
     d="M 47.3125 19.6875 C 50.826075 23.444182 53 28.470634 53 34 C 53 45.5671 43.56707 55 32 55 C 26.470777 55 21.444215 52.826071 17.6875 49.3125 C 21.524298 53.414809 26.962123 56 33 56 C 44.56707 56 54 46.5671 54 35 C 54 28.961966 51.414813 23.524256 47.3125 19.6875 z M 23 25 L 23 31 L 24 31 L 24 26 L 29 26 L 29 25 L 23 25 z M 35 25 L 35 31 L 36 31 L 36 26 L 41 26 L 41 25 L 35 25 z M 18.5 37 C 19.119398 39.675732 20.586372 42.065081 22.59375 43.875 C 21.09538 42.223888 20.012077 40.212118 19.5 38 L 22.0625 38 C 21.919822 37.681516 21.792651 37.353692 21.6875 37 L 18.5 37 z M 42.3125 37 C 41.016806 41.358292 36.774059 43 32 43 C 28.989462 43 26.169688 42.356478 24.1875 40.78125 C 26.151178 43.081635 29.419456 44 33 44 C 37.774059 44 42.016806 42.358292 43.3125 38 L 45.21875 38 C 45.322223 37.675468 45.422565 37.334511 45.5 37 L 42.3125 37 z "
     id="path3885" />
</svg>

<svg xmlns="http://www.w3.org/2000/svg" viewBox="0 0 64 64"><g color="#000"><path d="m0 4v30 28l2 2h30 30l2-2v-28-30h-32-32" fill="#eeb015"/><path d="m2 0l-2 1v3h32 32v-3l-2-1h-30-30" fill="#ffe231"/></g><path d="m64 6l-2-2 2-1" fill="#700" fill-opacity=".108"/><path d="m0 6l2-2-2-1" fill="#fff77d" fill-opacity=".674"/><g color="#000"><path d="m32 13c-11.567 0-21 9.433-21 21 0 11.567 9.433 21 21 21 11.567 0 21-9.433 21-21 0-11.567-9.433-21-21-21m-9 12h6v6h-6zm12 0h6v6h-6zm-16.5 12h3.188c1.296 4.358 5.538 6 10.313 6 4.774 0 9.02-1.642 10.313-6h3.188c-1.393 6.02-7.096 10.5-13.5 10.5-6.404 0-12.11-4.484-13.5-10.5" fill="#f1f0ee"/><path d="m47.31 19.688c3.514 3.757 5.688 8.783 5.688 14.313 0 11.567-9.433 21-21 21-5.529 0-10.556-2.174-14.313-5.688 3.837 4.102 9.275 6.688 15.313 6.688 11.567 0 21-9.433 21-21 0-6.04-2.585-11.476-6.688-15.313m-24.313 5.313v6h1v-5h5v-1h-6m12 0v6h1v-5h5v-1h-6m-16.5 12c.619 2.676 2.086 5.065 4.094 6.875-1.498-1.651-2.582-3.663-3.094-5.875h2.563c-.143-.318-.27-.646-.375-1h-3.188m23.813 0c-1.296 4.358-5.538 6-10.313 6-3.01 0-5.83-.644-7.813-2.219 1.964 2.3 5.232 3.219 8.813 3.219 4.774 0 9.02-1.642 10.313-6h1.906c.103-.325.204-.665.281-1h-3.188" fill-opacity=".108" fill="#700"/></g></svg>
